X:015 
T:Beggarman's Reel, The 
B:CRE5.137 (Ril an Fhir DhÃÂÃÂÃÂÃÂ©irce)
F:file ID: cre.5/015begg
B:CRE5.137 (Ril an Fhir DhÃÂÃÂÃÂÃÂ©irce)
M:4/4
Q:180
R:reel
K:Em
G2BG dGBG|ABcA BE ~E2|Bdef gfed|Bded BEED|
G2BG dGBG|ABcA BE ~E2|Bdef gfed|BdeB BE ~E2||
g3a bgeg|fgag fddf|g3a bgef|gfed Beef|
g3a bgef|fgag fddf|bgaf gfed|Bded BEED|
"last time"E8|]

%%%

